!!!OTL: Bingo
!!!COM: unknown
!!!ODT: 1750 (18th century)
!!!YOR: The Folksong Fake Book
!!!YOY: 2000
!!!AST: Children's song
!!!YEC: Brian Luke, 2001
**kern	**harm
*k[f#]	*k[f#]
*M2/4	*M2/4
*G:	*G:
*>A	*>A
8d	.
=1	=1
8g	I
8g	.
8d	.
8d	.
=2	=2
8e	IVc
8e	.
8d	I
8d	.
=3	=3
8g	.
8g	.
8a	V
8a	.
=4	=4
4b	I;
4g	.
=5	=5
4b	I
4b	.
=6	=6
8cc	IV
8cc	.
4cc	.
=7	=7
4a	V
4a	.
=8	=8
8b	I
8b	.
4b	.
=9	=9
4g	vi
4g	.
=10	=10
8a	ii
8a	.
8a	.
8g	.
=11	=11
8f#	V7
8d	.
8e	.
8f#	.
=12	=12
4g	I;
8g	.
*-	*-
